images/icon-dial.svg

<svg width="64" height="64" viewBox="0 0 64 64" fill="none" xmlns="http://www.w3.org/2000/svg">
<circle cx="31.9996" cy="32" r="32" fill="#3DBD63"/>
<path d="M43.9996 37.8933V42.608C43.9998 42.9456 43.8719 43.2706 43.6418 43.5176C43.4116 43.7646 43.0964 43.915 42.7596 43.9387C42.177 43.9787 41.701 44 41.333 44C29.5503 44 19.9996 34.4493 19.9996 22.6667C19.9996 22.2987 20.0196 21.8227 20.061 21.24C20.0846 20.9033 20.2351 20.588 20.482 20.3579C20.729 20.1277 21.0541 19.9998 21.3916 20H26.1063C26.2717 19.9998 26.4312 20.0611 26.5539 20.172C26.6766 20.2829 26.7538 20.4354 26.7703 20.6C26.801 20.9067 26.829 21.1507 26.8556 21.336C27.1206 23.1852 27.6636 24.9838 28.4663 26.6707C28.593 26.9373 28.5103 27.256 28.2703 27.4267L25.393 29.4827C27.1522 33.5819 30.419 36.8487 34.5183 38.608L36.5716 35.736C36.6556 35.6187 36.778 35.5345 36.9176 35.4982C37.0572 35.4619 37.2052 35.4757 37.3356 35.5373C39.0223 36.3385 40.8204 36.8802 42.669 37.144C42.8543 37.1707 43.0983 37.2 43.4023 37.2293C43.5666 37.2462 43.7188 37.3234 43.8294 37.4461C43.94 37.5688 44.0012 37.7282 44.001 37.8933H43.9996Z" fill="white"/>
</svg>

<svg width="64" height="64" fill="none" xmlns="http://www.w3.org/2000/svg"><circle cx="32" cy="32" r="32" fill="#3DBD63"/><path d="M44 37.893v4.715a1.333 1.333 0 0 1-1.24 1.33c-.583.04-1.059.062-1.427.062C29.55 44 20 34.45 20 22.667c0-.368.02-.844.061-1.427a1.333 1.333 0 0 1 1.33-1.24h4.715a.666.666 0 0 1 .664.6c.031.307.059.55.086.736.265 1.85.808 3.648 1.61 5.335a.607.607 0 0 1-.196.756l-2.877 2.056a17.396 17.396 0 0 0 9.125 9.125l2.054-2.872a.616.616 0 0 1 .764-.199 18.532 18.532 0 0 0 5.333 1.607c.185.027.43.056.733.085a.667.667 0 0 1 .599.664H44Z" fill="#fff"/></svg>
